findly-builder/apps/searchassist/src/assets/icons/content/webdomain.svg

<svg width="47" height="47" viewBox="0 0 47 47" fill="none" xmlns="http://www.w3.org/2000/svg">
<path d="M47 23.5C47 36.4779 36.4779 47 23.5 47C10.5221 47 0 36.4779 0 23.5C0 10.5221 10.5221 0 23.5 0C36.4779 0 47 10.5221 47 23.5Z" fill="#0D6EFD"/>
<path d="M43.4751 23.5C43.4751 20.6036 43.0063 17.8389 42.1873 15.275H45.4902C45.1894 14.4701 44.8487 13.6852 44.4644 12.925H41.3131C38.0172 5.26988 31.2798 0 23.5001 0C15.7204 0 8.98296 5.26988 5.68591 12.925H2.53456C2.15034 13.6852 1.81076 14.4701 1.50879 15.275H4.81171C3.99391 17.8389 3.52509 20.6036 3.52509 23.5C3.52509 26.3964 3.99391 29.1612 4.81289 31.725H1.50996C1.81076 32.5299 2.15151 33.3148 2.53574 34.075H5.68709C8.98414 41.7301 15.7216 47 23.5013 47C31.2809 47 38.0184 41.7301 41.3154 34.075H44.4668C44.851 33.3148 45.1906 32.5299 45.4926 31.725H42.1896C43.0063 29.1612 43.4751 26.3964 43.4751 23.5ZM41.1251 23.5C41.1251 26.4152 40.6304 29.1952 39.7374 31.725H32.3243C32.7039 29.0625 32.9001 26.2613 32.9001 23.5C32.9001 20.7388 32.705 17.9376 32.3243 15.275H39.7374C40.6304 17.8048 41.1251 20.5848 41.1251 23.5ZM23.5001 44.65C21.2253 44.65 18.7754 40.6021 17.4465 34.075H29.5537C28.2248 40.6021 25.7749 44.65 23.5001 44.65ZM17.0376 31.725C16.6675 29.2422 16.4501 26.4833 16.4501 23.5C16.4501 20.5167 16.6675 17.7578 17.0376 15.275H29.9626C30.3327 17.7578 30.5501 20.5167 30.5501 23.5C30.5501 26.4833 30.3327 29.2422 29.9626 31.725H17.0376ZM23.5001 2.35C25.7749 2.35 28.2248 6.39788 29.5537 12.925H17.4465C18.7754 6.39788 21.2253 2.35 23.5001 2.35ZM38.7398 12.925H31.9342C31.1834 9.01225 30.0037 5.5554 28.4163 3.20423C32.8084 4.73878 36.4885 8.26965 38.7398 12.925ZM18.5839 3.20423C16.9976 5.55658 15.8168 9.01225 15.0659 12.925H8.26034C10.5116 8.26965 14.1917 4.73878 18.5839 3.20423ZM5.87509 23.5C5.87509 20.5848 6.36976 17.8048 7.26276 15.275H14.6758C14.2951 17.9376 14.1001 20.7388 14.1001 23.5C14.1001 26.2613 14.2951 29.0625 14.6758 31.725H7.26276C6.36976 29.1952 5.87509 26.4152 5.87509 23.5ZM8.26034 34.075H15.0659C15.8168 37.9878 16.9965 41.4446 18.5839 43.7958C14.1917 42.2612 10.5116 38.7304 8.26034 34.075ZM28.4163 43.7958C30.0025 41.4434 31.1834 37.9878 31.9342 34.075H38.7398C36.4885 38.7304 32.8084 42.2612 28.4163 43.7958Z" fill="#85B7FE"/>
<path opacity="0.1" d="M36.736 31.0313L27.4594 21.7546C26.9811 21.2776 26.2726 21.1401 25.6616 21.4104C25.0624 21.6677 24.6758 22.2552 24.6758 22.9073V36.1825C24.6758 37.7147 26.3126 38.3433 27.3654 37.4409L29.2254 35.8911L30.6201 39.0988C30.888 39.7098 31.8033 40.2985 32.7657 39.9413L34.346 39.2539C35.1768 38.9014 35.6244 38.0378 35.1932 37.1084L33.8396 33.9923L35.722 33.8231C37.2213 33.8231 37.777 32.0629 36.736 31.0313Z" fill="black"/>
<path opacity="0.1" d="M36.3194 31.4462L27.0428 22.1695C26.7303 21.8582 26.2791 21.7818 25.8925 21.9498C25.5165 22.1131 25.2627 22.4809 25.2627 22.9063V36.1814C25.2627 37.1449 26.3108 37.5668 26.9888 36.9887L29.4504 34.9359L31.1565 38.8628C31.3398 39.2834 31.932 39.63 32.5289 39.4021L34.1104 38.7147C34.6415 38.4879 34.9177 37.9228 34.6521 37.3423L32.973 33.4801L35.6673 33.2392C36.6155 33.2204 36.9798 32.1018 36.3194 31.4462Z" fill="black"/>
<path d="M35.9039 31.7353L26.6273 22.4587C26.4816 22.313 26.2842 22.2942 26.1244 22.3635C25.9704 22.4305 25.8506 22.5809 25.8506 22.7806V36.0546C25.8506 36.4482 26.31 36.6633 26.6132 36.4118L29.6776 33.8562L31.6962 38.501C31.7961 38.7313 32.0652 38.837 32.2955 38.7371L33.8782 38.0486C34.1085 37.9487 34.2142 37.6796 34.1144 37.4493L32.111 32.8398L35.6172 32.5261C36.0096 32.4908 36.1835 32.0138 35.9039 31.7353Z" fill="white"/>
</svg>

<svg width="47" height="47" fill="none" xmlns="http://www.w3.org/2000/svg"><path d="M47 23.5C47 36.478 36.478 47 23.5 47S0 36.478 0 23.5 10.522 0 23.5 0 47 10.522 47 23.5Z" fill="#0D6EFD"/><path d="M43.475 23.5c0-2.896-.469-5.661-1.288-8.225h3.303c-.3-.805-.641-1.59-1.026-2.35h-3.15C38.016 5.27 31.28 0 23.5 0 15.72 0 8.983 5.27 5.686 12.925H2.535c-.385.76-.724 1.545-1.026 2.35h3.303A27.035 27.035 0 0 0 3.525 23.5c0 2.896.469 5.661 1.288 8.225H1.51c.3.805.642 1.59 1.026 2.35h3.151C8.984 41.73 15.722 47 23.501 47c7.78 0 14.517-5.27 17.814-12.925h3.152c.384-.76.724-1.545 1.026-2.35H42.19a27.068 27.068 0 0 0 1.285-8.225Zm-2.35 0c0 2.915-.495 5.695-1.388 8.225h-7.413A58.79 58.79 0 0 0 32.9 23.5c0-2.761-.195-5.562-.576-8.225h7.413a24.717 24.717 0 0 1 1.388 8.225ZM23.5 44.65c-2.275 0-4.725-4.048-6.053-10.575h12.107c-1.33 6.527-3.78 10.575-6.054 10.575Zm-6.462-12.925a55.961 55.961 0 0 1-.588-8.225c0-2.983.218-5.742.588-8.225h12.925c.37 2.483.587 5.242.587 8.225 0 2.983-.217 5.742-.587 8.225H17.038ZM23.5 2.35c2.275 0 4.725 4.048 6.054 10.575H17.447C18.774 6.398 21.224 2.35 23.5 2.35Zm15.24 10.575h-6.806c-.75-3.913-1.93-7.37-3.518-9.72 4.392 1.534 8.073 5.065 10.324 9.72Zm-20.156-9.72c-1.586 2.352-2.767 5.807-3.518 9.72H8.26c2.252-4.655 5.932-8.186 10.324-9.72ZM5.875 23.5c0-2.915.495-5.695 1.388-8.225h7.413A58.677 58.677 0 0 0 14.1 23.5c0 2.761.195 5.563.576 8.225H7.263A24.717 24.717 0 0 1 5.875 23.5ZM8.26 34.075h6.806c.75 3.913 1.93 7.37 3.518 9.72-4.392-1.534-8.072-5.065-10.324-9.72Zm20.156 9.72c1.587-2.352 2.767-5.807 3.518-9.72h6.806c-2.252 4.655-5.932 8.186-10.324 9.72Z" fill="#85B7FE"/><path opacity=".1" d="m36.736 31.031-9.277-9.276a1.614 1.614 0 0 0-1.797-.345c-.6.258-.986.845-.986 1.497v13.275c0 1.533 1.637 2.161 2.69 1.259l1.86-1.55L30.62 39.1c.268.61 1.183 1.2 2.146.842l1.58-.687c.83-.353 1.278-1.216.847-2.146l-1.353-3.116 1.882-.169c1.5 0 2.055-1.76 1.014-2.792Z" fill="#000"/><path opacity=".1" d="m36.32 31.446-9.277-9.277a1.034 1.034 0 0 0-1.15-.22 1.04 1.04 0 0 0-.63.957v13.275c0 .964 1.048 1.386 1.726.808l2.461-2.053 1.707 3.927c.183.42.775.767 1.372.54l1.581-.688c.532-.227.808-.792.542-1.373l-1.679-3.862 2.694-.24c.948-.02 1.313-1.138.652-1.794Z" fill="#000"/><path d="m35.904 31.735-9.277-9.276a.448.448 0 0 0-.503-.096.449.449 0 0 0-.273.418v13.274c0 .393.459.608.762.357l3.065-2.556 2.018 4.645c.1.23.37.336.6.236l1.582-.688c.23-.1.336-.37.236-.6l-2.003-4.61 3.506-.313a.464.464 0 0 0 .287-.79Z" fill="#fff"/></svg>
